packages/core/src/svgs/tokens/mono/PROM.svg

<svg width="24" height="24" viewBox="0 0 24 24" fill="none" xmlns="http://www.w3.org/2000/svg">
<path d="M11.1101 22H12.9501C11.3 19.265 9.66008 16.5249 8.01507 13.7899C7.88694 13.604 7.80744 13.3891 7.78386 13.1647C7.76027 12.9401 7.79336 12.7133 7.88008 12.5049C7.97008 12.2699 8.16008 12.0499 8.34007 11.8849C7.98889 11.4009 7.74201 10.8493 7.61507 10.2649C5.93506 11.1049 5.55506 12.7849 6.52507 14.4649L11.1101 22ZM10.4101 15.9949C11.4801 16.12 12.4751 16.1149 13.5501 15.9949C14.8501 15.845 16.0151 15.525 16.7401 15.035C17.1215 14.7902 17.4362 14.4548 17.6561 14.0586C17.876 13.6625 17.9942 13.218 18.0001 12.765C18.0001 11.6649 17.3502 10.8149 16.4601 10.3249C16.3439 10.9302 16.0983 11.5033 15.7402 12.0049C15.9451 12.2199 16.1252 12.4949 16.1252 12.765C16.1252 13.1999 15.6401 13.6799 15.2901 13.8899C14.8801 14.1249 14.2751 14.2799 13.8101 14.3299C13.2051 14.3999 12.5901 14.4299 11.9801 14.4399C11.6551 14.4399 11.3151 14.4199 10.9901 14.3999C10.4501 14.3699 9.86013 14.3349 9.33508 14.1849L10.4101 15.9999V15.9949Z" fill="white"/>
<path d="M12.0147 2C13.6248 4.72002 13.0597 6.34503 12.8397 7.36503C12.5047 8.94504 14.4348 9.46504 14.5748 7.62503C14.6098 7.19503 14.5848 6.69503 14.5597 6.22502C16.5448 9.52504 15.2498 12.5 12.0097 12.5C9.29973 12.5 7.77473 9.9301 8.84974 7.37003C8.72973 8.72504 9.64973 9.16003 9.49974 8.54004C9.45973 8.38504 9.37474 8.11503 9.32473 7.56503C9.06974 4.93501 12.1948 4.26501 12.0147 2Z" fill="white"/>
</svg>

<svg xmlns="http://www.w3.org/2000/svg" width="24" height="24" fill="none" viewBox="0 0 24 24">
    <path fill="#fff" d="M11.11 22h1.84c-1.65-2.735-3.29-5.475-4.935-8.21a1.35 1.35 0 0 1-.135-1.285c.09-.235.28-.455.46-.62a4.3 4.3 0 0 1-.725-1.62c-1.68.84-2.06 2.52-1.09 4.2zm-.7-6.005c1.07.125 2.065.12 3.14 0 1.3-.15 2.465-.47 3.19-.96a2.74 2.74 0 0 0 1.26-2.27c0-1.1-.65-1.95-1.54-2.44a4.3 4.3 0 0 1-.72 1.68c.205.215.385.49.385.76 0 .435-.485.915-.835 1.125-.41.235-1.015.39-1.48.44-.605.07-1.22.1-1.83.11-.325 0-.665-.02-.99-.04-.54-.03-1.13-.065-1.655-.215L10.41 16z"/>
    <path fill="#fff" d="M12.015 2c1.61 2.72 1.045 4.345.825 5.365-.335 1.58 1.595 2.1 1.735.26.035-.43.01-.93-.015-1.4 1.985 3.3.69 6.275-2.55 6.275-2.71 0-4.235-2.57-3.16-5.13-.12 1.355.8 1.79.65 1.17-.04-.155-.125-.425-.175-.975-.255-2.63 2.87-3.3 2.69-5.565"/>
</svg>
